X: 36244
T: Sea Stallion, The
R: polka
M: 2/4
K: Gminor
DD/F/ DF|GG/A/ GF|BB/c/ df|gg/b/ g2|a/b/a/g/ f/g/f/=e/|=e^c d2:|
K:A
ee/c/ Ag|ag f2|e/f/e/c/ Ac|ed B2|ec/A/ FE|F2 A2:|
K:G
D>B Bc|dd/e/ dB|bb/a/ g/a/g/f/|fe/d/ cA|aa/g/ f/g/f/e/|ed/c/ BA|
BB/c/ BB|^cc/d/ cc|dB/G/ ED|EF GA|BA/G/ ED|E4:|

